X:1
T:Denne er Dagen, som Herren har gjort
T:Carl Nielsen (FS83/3)
T:N.F.S. Grundtvig
T:Denne er Dagen, som Herren har gjort
T:Copyright (c) 2006 by Choral Public Domain Library (http://www.cpdl.org). Edition may be freely distributed, duplicated, performed or recorded.
T:Copyright (c) 2006 by Choral Public Domain Library (http://www.cpdl.org). Edition may be freely distributed, duplicated, performed or recorded.
T:Copyright (c) 2006 by Choral Public Domain Library (http://www.cpdl.org). Edition may be freely distributed, duplicated, performed or recorded.
T:Copyright (c) 2006 by Choral Public Domain Library (http://www.cpdl.org). Edition may be freely distributed, duplicated, performed or recorded.
C:Carl Nielsen (FS83/3)
Z:N.F.S. Grundtvig
Z:Copyright (c) 2006 by Choral Public Domain Library (http://www.cpdl.org).
Z:Edition may be freely distributed, duplicated, performed or recorded.
%%score [ 1 2 3 4 ]
L:1/8
M:3/4
K:E
V:1 treble nm="S." snm="S."
V:2 treble nm="A." snm="A."
V:3 treble-8 transpose=-12 nm="T." snm="T."
V:4 bass nm="B." snm="B."
V:1
 G2 F2 G2 | E3 E F2 | G2 B2 e2 | B6 | c2 B2 G2 | A2 G2 E2 | F6 | E4 z2 :| F2 G2 A2 | B3 c B2 | %10
w: Den- ne er|Da- gen, som|Her- ren har|gjort!|den skal hans|Tje- ne- re|fry-|de,|thi i dens|hel- li- ge|
w: op han i|Dag luk- ked|Him- me- rigs|Port,|saá skal hver|Søn- dag det|ly-|de;|||
 (A4 G2) | F6 | E2 F2 G2 | F3 G E2 | D4 C2 | B,6 | B2 A2 G2 | c2 c2 B2 | A4 G2 | F6 | E2 F2 G2 | %21
w: Ti- *|mer|her- lig af|Gra- ven op-|stod Guds|Ord,|naa- dig fra|Him- len Guds|Aand ned-|fór:|Véd I nu|
w: |||||||||||
 A2 (BA) G2 | F6 | !fermata!E4 z2 |] %24
w: hvor- for _ det|ki-|mer.|
w: |||
V:2
 E2 F2 D2 | C3 B, D2 | E2 F2 E2 | D6 | C2 F2 B,2 | E2 D2 E2 | (E2 D4) | B,4 z2 :| D2 E2 E2 | %9
w: Den- ne er|Da- gen, som|Her- ren har|gjort!|den skal hans|Tje- ne- re|fry- *|de,|thi i dens|
w: op han i|Dag luk- ked|Him- me- rigs|Port,|saá skal hver|Søn- dag det|ly- *|de;||
 E3 E D2 | (F4 ^E2) | F6 | C2 D2 E2 | D3 D C2 | B,4 ^A,2 | B,6 | E2 E2 E2 | E3 D E2 | (E2 F2) E2 | %19
w: hel- li- ge|Ti- *|mer|her- lig af|Gra- ven op-|stod Guds|Ord,|naa- dig fra|Him- len Guds|* * ned-|
w: ||||||||||
 D6 | C3 D E2 | E2 F2 E2 | (E2 D4) | !fermata!B,4 z2 |] %24
w: fór:|Véd I nu|hvor- for det|ki- *|mer.|
w: |||||
V:3
 B2 c2 B2 | G3 B A2 | B2 B2 G2 | G6 | E2 D2 E2 | E2 B2 G2 | (c2 B4) | G4 z2 :| B2 B2 A2 | G3 G F2 | %10
w: Den- ne er|Da- gen, som|Her- ren har|gjort!|den skal hans|Tje- ne- re|fry- *|de,|thi i dens|hel- li- ge|
w: op han i|Dag luk- ked|Him- me- rigs|Port,|saá skal hver|Søn- dag det|ly- *|de;|||
 c6 | A6 | A2 A2 B2 | B3 B G2 | F4 F2 | D6 | B2 c2 B2 | B2 A2 B2 | c4 B2 | B6 | G2 A2 B2 | %21
w: Ti-|mer|her- lig af|Gra- ven op-|stod Guds|Ord,|naa- dig fra|Him- len Guds|Aand ned-|fór:|Véd I nu|
w: |||||||||||
 c2 B2 B2 | (c2 B4) | !fermata!G4 z2 |] %24
w: hvor- for det|ki- *|mer.|
w: |||
V:4
 E,2 A,,2 B,,2 | C,3 G, F,2 | E,2 D,2 C,2 | G,,6 | A,,2 B,,2 E,2 | C,2 B,,2 C,2 | (A,,2 B,,4) | %7
w: Den- ne er|Da- gen, som|Her- ren har|gjort!|den skal hans|Tje- ne- re|fry- *|
w: op han i|Dag luk- ked|Him- me- rigs|Port,|saá skal hver|Søn- dag det|ly- *|
 E,4 z2 :| B,,2 E,2 C,2 | E,3 E, B,,2 | (F,,2 A,,2 C,2) | =D,6 | A,2 F,2 E,2 | B,,3 B,, C,2 | %14
w: de,|thi i dens|hel- li- ge|Ti- * *|mer|her- lig af|Gra- ven op-|
w: de;|||||||
 (D,2 E,2) F,2 | B,,6 | G,,2"^rev.1(11/06)" A,,2 E,2 | C,2 F,2 G,2 | %18
w: stod _ Guds|Ord,|naa- dig fra|Him- len Guds|
w: ||||
"^1.2.3.4." A,4"^Denne er Dagen, som Herren har gjort!den skal hans Tjenere fryde,op han i Dag lukked Himmerigs Port,saá skal hver Søndag det lyde;thi i dens hellige Timerherlig af Graven opstod Guds Ord,naadig fra Himlen Guds Aand nedfór:Véd I nu hvorfor det kimer.Frels da nu, Herre, giv Lykke og Held!Værket i Dag er dig eget!Lad Millioner dig takke i Kvæld,for du dem har vederkvæget!Ja, lad dem prise med GlædeAanden, som taler og trøster frit,Folket velsigner i Navnet dit,viser, din Fred er til Stede.Herre, vor Gud, ja besøg os i Glans,hvor i din Kirke vi mødes!Tungerne binde dig Krans over Krans,alt som vort Hjerte opglødes;Højtiden vokse med Dagen!Paaske og Pinse udsprang af Jul,saa lad og Glæden af Tro i Skjulspørge forgæves om Magen!Ja, lad saa virke dit Bad og dit Bord,med de indvirkede Tunger,at det kan høres, din Aand og dit Order det, som taler og sjunger!Lad os det føle og smage:Aanden er bedre end Kød og Blod,Herren er liflig og ejegod,kristne har kronede Dage!                    N.F.S. Grundtvig (1783-1872)                    Sangværk til den danske Kirke I (1837)" E,2 | %19
w: Aand ned-|
w: |
 B,,6 | C,2 F,2 E,2 | C,2 D,2 E,2 | (A,,2 B,,4) | !fermata!E,,4 z2 |] %24
w: fór:|Véd I nu|hvor- for det|ki- *|mer.|
w: |||||

